icons/svg/sport/badminton.svg

<?xml version="1.0" encoding="UTF-8" standalone="no"?>
<!-- Created with Inkscape (http://www.inkscape.org/) -->

<svg
   xmlns:dc="http://purl.org/dc/elements/1.1/"
   xmlns:cc="http://creativecommons.org/ns#"
   xmlns:rdf="http://www.w3.org/1999/02/22-rdf-syntax-ns#"
   xmlns:svg="http://www.w3.org/2000/svg"
   xmlns="http://www.w3.org/2000/svg"
   xmlns:sodipodi="http://sodipodi.sourceforge.net/DTD/sodipodi-0.dtd"
   xmlns:inkscape="http://www.inkscape.org/namespaces/inkscape"
   version="1.0"
   width="580"
   height="580"
   id="svg2"
   sodipodi:version="0.32"
   inkscape:version="0.91 r"
   sodipodi:docname="badminton.svg"
   inkscape:output_extension="org.inkscape.output.svg.inkscape">
  <metadata
     id="metadata2975">
    <rdf:RDF>
      <cc:Work
         rdf:about="">
        <dc:format>image/svg+xml</dc:format>
        <dc:type
           rdf:resource="http://purl.org/dc/dcmitype/StillImage" />
        <cc:license
           rdf:resource="http://web.resource.org/cc/PublicDomain" />
        <dc:language>en</dc:language>
      </cc:Work>
    </rdf:RDF>
  </metadata>
  <sodipodi:namedview
     inkscape:window-height="739"
     inkscape:window-width="1332"
     inkscape:pageshadow="2"
     inkscape:pageopacity="0.0"
     guidetolerance="10.0"
     gridtolerance="10.0"
     objecttolerance="10.0"
     borderopacity="1.0"
     bordercolor="#666666"
     pagecolor="#ffffff"
     id="base"
     inkscape:zoom="0.46083856"
     inkscape:cx="639.95119"
     inkscape:cy="272.25378"
     inkscape:window-x="34"
     inkscape:window-y="1024"
     inkscape:current-layer="svg2"
     showgrid="false"
     inkscape:window-maximized="1" />
  <defs
     id="defs4">
    <inkscape:perspective
       sodipodi:type="inkscape:persp3d"
       inkscape:vp_x="0 : 290 : 1"
       inkscape:vp_y="0 : 1000 : 0"
       inkscape:vp_z="580 : 290 : 1"
       inkscape:persp3d-origin="290 : 193.33333 : 1"
       id="perspective2441" />
    <inkscape:perspective
       id="perspective3452"
       inkscape:persp3d-origin="30 : 20 : 1"
       inkscape:vp_z="60 : 30 : 1"
       inkscape:vp_y="0 : 1000 : 0"
       inkscape:vp_x="0 : 30 : 1"
       sodipodi:type="inkscape:persp3d" />
    <symbol
       viewBox="244.5 110 489 219.9"
       id="symbol-university">
      <path
         id="path4460"
         d="M79,43l57,119c0,0,21-96,104-96s124,106,124,106l43-133l82-17L0,17L79,43z" />
      <path
         id="path4462"
         d="M94,176l-21,39"
         stroke-width="20"
         stroke="#000000"
         fill="none" />
      <path
         id="path4464"
         d="M300,19c0,10.5-22.6,19-50.5,19S199,29.5,199,19s22.6-19,50.5-19S300,8.5,300,19z" />
      <path
         id="path4466"
         d="M112,216l-16-38L64,88c0,0-9-8-4-35s16-24,16-24"
         stroke-width="20"
         stroke="#000000"
         ill="none" />
    </symbol>
    <inkscape:perspective
       id="perspective4471"
       inkscape:persp3d-origin="372.04724 : 350.78739 : 1"
       inkscape:vp_z="744.09448 : 526.18109 : 1"
       inkscape:vp_y="0 : 1000 : 0"
       inkscape:vp_x="0 : 526.18109 : 1"
       sodipodi:type="inkscape:persp3d" />
    <inkscape:perspective
       id="perspective4668"
       inkscape:persp3d-origin="6 : 4 : 1"
       inkscape:vp_z="12 : 6 : 1"
       inkscape:vp_y="0 : 1000 : 0"
       inkscape:vp_x="0 : 6 : 1"
       sodipodi:type="inkscape:persp3d" />
  </defs>
  <g
     id="g1327">
    <path
       d="M 66.275,1.768 C 24.94,1.768 1.704,23.139 1.704,66.804 L 1.704,516.927 C 1.704,557.771 22.599,579.156 63.896,579.156 L 515.92,579.156 C 557.227,579.156 578.149,558.841 578.149,516.927 L 578.149,66.804 C 578.149,24.203 557.227,1.768 514.628,1.768 C 514.624,1.768 66.133,1.625 66.275,1.768 z "
       style="fill:#111;stroke:#eee;stroke-width:3.40799999"
       id="path1329" />
  </g>
  <path
     style="fill:#ffffff"
     inkscape:connector-curvature="0"
     d="m 381.87046,28.140398 -25.83191,77.799842 -34.17893,-28.227406 -0.0104,1.151593 -17.67609,44.845643 -39.03172,-23.824842 0.12826,0.580482 -13.10461,58.93829 -41.84176,-24.0039 0.13583,3.11956 -3.49302,54.28537 -49.68035,-19.69692 0.57758,1.29024 -0.92794,-1.04114 2.26587,57.95057 -42.44412,-12.52857 0.0844,0.50497 -0.89933,-0.77306 8.30538,58.40953 -89.263655,-7.47165 313.784395,193.26 0.83716,-0.59523 8.5823,12.07064 c 0.17985,-0.15547 0.28024,-0.36715 0.48231,-0.51083 l 109.32608,-77.73143 -8.503,-11.95912 0.83717,-0.59523 -78.4594,-355.247402 z M 365.69626,130.07326 378.61522,91.162308 438.8547,363.89766 c -1.47935,-0.85256 -3.06093,-1.68776 -4.74535,-2.48143 l -100.69468,-254.78741 32.28159,23.44444 z m -51.85284,14.83477 8.32341,-21.11558 91.74718,232.15061 c -2.00864,-0.16607 -4.08079,-0.21586 -6.21253,-0.15219 l -127.53603,-229.00609 33.67797,18.12325 z m -49.36626,36.38377 7.66086,-34.45333 118.15201,212.15973 c -5.00601,1.70034 -10.23268,4.17394 -15.63811,7.52137 L 230.93224,164.38371 264.47716,181.2918 Z m -42.02339,32.03809 1.88274,-29.28223 136.86151,192.49012 c -4.75241,4.19091 -8.67188,8.44744 -11.82921,12.70339 L 177.5989,196.5355 l 44.85487,16.79439 z m -45.80336,34.88766 -1.12749,-28.80926 165.2628,185.40414 c -0.73565,1.93555 -1.3642,3.85222 -1.86672,5.74053 l -199.394,-171.73727 37.12541,9.40186 z m -73.03325,43.80176 40.19827,3.36279 -4.97962,-35.02732 198.31851,170.8109 c 0.15315,1.7797 0.37667,3.47775 0.6498,5.0872 L 103.61716,292.01931 Z"
     id="path13" />
  <path
     style="fill:#ffffff"
     inkscape:connector-curvature="0"
     d="m 469.71169,515.70608 c 52.85335,-39.42018 11.53535,-100.11624 11.53535,-100.11624 l -109.88768,78.13074 c 0,0 45.49524,61.40045 98.35233,21.9855 z"
     id="path15" />
</svg>

<svg width="580" height="580" viewBox="0 0 580 580" fill="none" xmlns="http://www.w3.org/2000/svg">
<g clip-path="url(#clip0)">
<path d="M66.2751 1.76815C24.9401 1.76815 1.7041 23.1391 1.7041 66.8041V516.927C1.7041 557.771 22.5991 579.156 63.8961 579.156H515.92C557.227 579.156 578.149 558.841 578.149 516.927V66.8041C578.149 24.2031 557.227 1.76815 514.628 1.76815C514.624 1.76815 66.1331 1.62515 66.2751 1.76815Z" fill="#111111" stroke="#EEEEEE" stroke-width="3.408"/>
<path d="M381.87 28.1406L356.038 105.94L321.86 77.7131L321.849 78.8647L304.173 123.71L265.141 99.8855L265.27 100.466L252.165 159.404L210.323 135.4L210.459 138.52L206.966 192.805L157.286 173.108L157.863 174.399L156.935 173.357L159.201 231.308L116.757 218.779L116.841 219.284L115.942 218.511L124.248 276.921L34.9839 269.449L348.768 462.709L349.605 462.114L358.188 474.185C358.368 474.029 358.468 473.817 358.67 473.674L467.996 395.942L459.493 383.983L460.33 383.388L381.871 28.1406H381.87ZM365.696 130.073L378.615 91.1625L438.855 363.898C437.375 363.045 435.794 362.21 434.109 361.416L333.415 106.629L365.696 130.073ZM313.843 144.908L322.167 123.793L413.914 355.943C411.905 355.777 409.833 355.727 407.701 355.791L280.165 126.785L313.843 144.908V144.908ZM264.477 181.292L272.138 146.839L390.29 358.998C385.284 360.699 380.057 363.172 374.652 366.52L230.932 164.384L264.477 181.292V181.292ZM222.454 213.33L224.336 184.048L361.198 376.538C356.446 380.729 352.526 384.985 349.369 389.241L177.599 196.536L222.454 213.33V213.33ZM176.65 248.218L175.523 219.409L340.786 404.813C340.05 406.748 339.421 408.665 338.919 410.553L139.525 238.816L176.65 248.218V248.218ZM103.617 292.02L143.815 295.382L138.836 260.355L337.154 431.166C337.307 432.946 337.531 434.644 337.804 436.253L103.617 292.02V292.02Z" fill="white"/>
<path d="M469.712 515.706C522.565 476.286 481.247 415.59 481.247 415.59L371.359 493.721C371.359 493.721 416.855 555.121 469.712 515.706Z" fill="white"/>
</g>
<defs>
<clipPath id="clip0">
<path d="M0 0H580V580H0V0Z" fill="white"/>
</clipPath>
</defs>
</svg>
